X: 533
T: Jie shunshun
%%abc-version 2.0
%%abcx-abcm2ps-target-version 5.9.1 (29 Sep 2008)
%%abc-creator hum2abc beta
%%abcx-conversion-date 2013/10/02 07:52:30
%%abc-edited-by Helmut Schaffrath
%%humdrum-veritas 768214099
%%humdrum-veritas-data 2550065532
%%continueall 1
%%barnumbers 0
L: 1/8
M: 2/4
K: Bb
d'> c' b b [I:setbarnb 1]| 
b dc2 | 
d'> c' b b | 
b dc2 | 
c' c' d' c' | 
b dc2 | 
f f/ g/ f c | 
d/ f/ d/ c/B2 |]  



